24x24/actions/draw-bezier-curves.svg

<svg xmlns="http://www.w3.org/2000/svg" viewBox="0 0 24 24">
  <defs id="defs3051">
    <style type="text/css" id="current-color-scheme">
      .ColorScheme-Text {
        color:#5d656b;
      }
      </style>
  </defs>
 <path style="fill:currentColor;fill-opacity:1;stroke:none" 
     d="M 18.5 4 C 17.84576 4 17.297803 4.418077 17.091797 5 L 4 5 L 4 6 C 7.601 6 10.5 8.899 10.5 12.5 C 10.5 14.405514 9.6778852 16.101777 8.3789062 17.287109 C 8.1331792 17.10687 7.83013 17 7.5 17 C 6.669 17 6 17.669 6 18.5 C 6 19.331 6.669 20 7.5 20 C 8.15424 20 8.7021971 19.581923 8.9082031 19 L 13 19 L 13 20 L 16 20 L 16 17 L 13 17 L 13 18 L 9.0878906 18 C 10.567038 16.632069 11.5 14.682903 11.5 12.5 C 11.5 9.711333 9.9893325 7.292531 7.7421875 6 L 17.091797 6 C 17.297803 6.581923 17.84576 7 18.5 7 C 19.331 7 20 6.331 20 5.5 C 20 4.669 19.331 4 18.5 4 z M 18.5 5 C 18.777 5 19 5.223 19 5.5 C 19 5.777 18.777 6 18.5 6 C 18.43075 6 18.364547 5.9861725 18.304688 5.9609375 C 18.125108 5.8852345 18 5.70775 18 5.5 C 18 5.43075 18.013832 5.3645475 18.039062 5.3046875 C 18.114763 5.1251095 18.29225 5 18.5 5 z M 7.5 18 C 7.777 18 8 18.223 8 18.5 C 8 18.777 7.777 19 7.5 19 C 7.223 19 7 18.777 7 18.5 C 7 18.223 7.223 18 7.5 18 z M 14 18 L 15 18 L 15 19 L 14 19 L 14 18 z "
     class="ColorScheme-Text"
     />
</svg>

<svg xmlns="http://www.w3.org/2000/svg" viewBox="0 0 24 24"><path style="fill:currentColor;fill-opacity:1;stroke:none;color:#5d656b" d="M18.5 4c-.654 0-1.202.418-1.408 1H4v1c3.601 0 6.5 2.899 6.5 6.5a6.453 6.453 0 0 1-2.121 4.787A1.497 1.497 0 0 0 6 18.5a1.497 1.497 0 0 0 2.908.5H13v1h3v-3h-3v1H9.088a7.461 7.461 0 0 0 2.412-5.5A7.478 7.478 0 0 0 7.742 6h9.35A1.497 1.497 0 0 0 20 5.5c0-.831-.669-1.5-1.5-1.5zm0 1a.499.499 0 1 1 0 1 .499.499 0 0 1-.46-.695A.499.499 0 0 1 18.5 5zm-11 13a.499.499 0 1 1 0 1 .499.499 0 1 1 0-1zm6.5 0h1v1h-1v-1z"/></svg>
